logos/hra-logos/hra-logo-black-on-white.svg

<svg width="220" height="226" viewBox="0 0 220 226" fill="none"
    xmlns="http://www.w3.org/2000/svg">
    <path d="M220 110.189C220 49.3333 170.751 0 110 0C49.2487 0 0 49.3333 0 110.189V115.811C0 176.667 49.2487 226 110 226C170.751 226 220 176.667 220 115.811V110.189Z" fill="white"/>
    <path d="M201.456 75.2036C196.457 63.3644 189.301 52.732 180.187 43.6007C171.074 34.4694 160.457 27.3011 148.638 22.2951C136.399 17.1102 123.4 14.4792 110.001 14.4792C96.602 14.4792 83.6031 17.1079 71.3637 22.2951C59.5447 27.3034 48.9304 34.4716 39.8147 43.6007C30.6989 52.7297 23.5429 63.3644 18.5454 75.2036C13.3694 87.4639 10.7429 100.485 10.7429 113.907C10.7429 127.329 13.3671 140.35 18.5454 152.61C23.5452 164.449 30.7012 175.082 39.8147 184.213C48.9281 193.342 59.5447 200.513 71.3637 205.519C83.6031 210.703 96.602 213.334 110.001 213.334C123.4 213.334 136.399 210.706 148.638 205.519C160.457 200.51 171.074 193.342 180.187 184.213C189.301 175.082 196.459 164.449 201.456 152.61C206.632 140.35 209.259 127.329 209.259 113.907C209.259 100.485 206.635 87.4639 201.456 75.2036ZM202.471 113.001H179.69C179.667 111.242 179.581 109.494 179.43 107.757L197.295 105.946C197.668 105.908 197.939 105.575 197.901 105.201C197.863 104.828 197.53 104.554 197.157 104.594L179.299 106.406C178.27 96.6948 175.248 87.4231 170.432 79.0707L190.13 67.707C197.838 81.07 202.311 96.5273 202.469 113.001H202.471ZM17.5305 113.001C17.5803 107.871 18.0482 102.84 18.9003 97.9401L41.3042 102.004C40.6894 105.606 40.3571 109.281 40.3119 113.001H17.5305ZM43.5419 102.41L63.916 106.107C63.5386 108.355 63.3193 110.658 63.2764 113.001H42.5745C42.6219 109.397 42.9519 105.86 43.5441 102.41H43.5419ZM139.805 145.714L132.586 137.18C133.892 135.908 135.092 134.526 136.17 133.05L145.551 139.116C143.858 141.504 141.93 143.712 139.805 145.714ZM75.9114 141.061L84.6541 134.135C85.5356 135.24 86.4872 136.288 87.5021 137.268L80.0115 145.544C78.5446 144.147 77.1749 142.648 75.9114 141.061ZM81.1688 81.2104L88.3768 89.7303C83.3093 94.2835 79.6747 100.406 78.2462 107.327L67.2703 105.335C69.1712 95.8163 74.1709 87.4073 81.1665 81.2104H81.1688ZM131.184 125.162L133.659 126.439C132.403 128.809 130.802 130.972 128.924 132.853L125.084 128.316C128.406 124.741 130.511 120.016 130.73 114.81H136.751C136.627 118.519 135.748 122.04 134.263 125.223L131.804 123.953C131.471 123.781 131.062 123.912 130.89 124.245C130.719 124.578 130.85 124.988 131.182 125.16L131.184 125.162ZM85.66 125.067L98.3175 119.031C99.8952 122.628 103.082 125.361 106.961 126.317L104.508 140.155C96.116 138.396 89.1566 132.688 85.66 125.067ZM92.0294 94.048L95.5012 98.1507C92.3052 101.019 89.9726 104.864 88.9916 109.277L83.8133 108.337C85 102.731 87.9406 97.7658 92.0317 94.048H92.0294ZM88.9893 110.658C89.03 110.665 89.0707 110.669 89.1114 110.669C89.2515 110.669 89.3826 110.624 89.4934 110.547C89.7262 110.515 89.9251 110.341 89.9703 110.096C90.8179 105.69 93.0805 101.853 96.2313 99.0133L101.098 104.767C98.9233 106.89 97.5038 109.784 97.2778 113.001H83.246C83.2844 111.874 83.3906 110.762 83.5647 109.673L88.9893 110.658ZM120.394 122.773C120.154 122.49 119.777 122.391 119.442 122.492C121.311 120.432 122.514 117.758 122.722 114.815H129.602C129.385 119.674 127.432 124.089 124.351 127.451L120.396 122.775L120.394 122.773ZM100.182 113.909C100.182 108.486 104.588 104.074 110.001 104.074C115.414 104.074 119.82 108.486 119.82 113.909C119.82 119.332 115.414 123.745 110.001 123.745C104.588 123.745 100.182 119.332 100.182 113.909ZM122.722 113.003C122.584 111.031 121.996 109.184 121.063 107.558L127.057 104.101C128.551 106.754 129.457 109.782 129.602 113.003H122.722ZM120.588 106.788C118.294 103.379 114.406 101.13 110.001 101.13C107.189 101.13 104.59 102.047 102.479 103.596L97.6304 97.8676C100.998 95.3454 105.164 93.8692 109.614 93.8692C116.768 93.8692 123.056 97.6503 126.594 103.322L120.586 106.788H120.588ZM97.2801 114.815C97.3637 115.99 97.6033 117.122 97.983 118.191L85.2983 124.24C84.0778 121.322 83.359 118.145 83.2482 114.815H97.2801ZM107.847 126.502C108.548 126.622 109.266 126.688 110.001 126.688C113.428 126.688 116.54 125.325 118.834 123.115C118.757 123.394 118.814 123.706 119.015 123.946L123.065 128.735C120.484 131.085 117.29 132.772 113.755 133.519C113.719 133.517 113.683 133.519 113.647 133.523C113.604 133.53 113.563 133.546 113.525 133.566C112.261 133.818 110.953 133.951 109.617 133.951C109.305 133.951 109.052 134.205 109.052 134.517C109.052 134.83 109.305 135.083 109.617 135.083C110.91 135.083 112.175 134.966 113.407 134.741L114.418 140.359C112.98 140.599 111.506 140.726 110.001 140.726C108.496 140.726 106.893 140.588 105.397 140.327L107.847 126.502ZM114.291 134.56C117.894 133.743 121.149 132.002 123.795 129.597L127.602 134.096C124.162 137.11 119.948 139.256 115.304 140.196L114.289 134.558L114.291 134.56ZM130.732 113.006C130.588 109.578 129.625 106.358 128.036 103.537L133.207 100.553C135.332 104.243 136.604 108.484 136.754 113.006H130.732ZM127.575 102.758C123.841 96.7469 117.189 92.7371 109.617 92.7371C104.89 92.7371 100.467 94.313 96.9003 97.0028L93.4105 92.8798C97.974 89.2594 103.74 87.0949 110.001 87.0949C119.587 87.0949 128.013 92.1688 132.742 99.7786L127.575 102.758ZM136.356 95.0194L145.544 88.6911C146.161 89.5628 146.749 90.4571 147.302 91.3741L137.637 96.9507C137.233 96.2918 136.806 95.6465 136.356 95.0194ZM135.542 93.9303C133.058 90.7514 129.995 88.0458 126.515 85.9741L132.077 76.2949C136.998 79.2043 141.301 83.0534 144.739 87.5975L135.542 93.9326V93.9303ZM125.335 85.3039C121.011 82.9696 116.101 81.5885 110.887 81.4458L110.849 70.2723C118.1 70.4126 124.923 72.3349 130.899 75.6202L125.335 85.3016V85.3039ZM109.079 81.4481C103.731 81.5975 98.704 83.0534 94.301 85.5032L88.7023 75.8443C94.7418 72.4413 101.667 70.4353 109.04 70.2768L109.079 81.4503V81.4481ZM93.1302 86.1869C91.9548 86.9069 90.827 87.7016 89.7556 88.562L82.5475 80.042C84.123 78.7583 85.7865 77.5832 87.5315 76.5258L93.1302 86.1847V86.1869ZM78.0021 108.668C77.7716 110.085 77.6314 111.534 77.5908 113.006H66.4363C66.4792 110.855 66.6804 108.742 67.0262 106.677L77.9999 108.668H78.0021ZM77.5908 114.817C77.706 119.017 78.6214 123.018 80.1901 126.677L70.1183 131.481C67.8625 126.364 66.5606 120.733 66.4385 114.817H77.593H77.5908ZM80.5585 127.503C81.4671 129.468 82.5656 131.329 83.8314 133.059L75.0818 139.99C73.3007 137.603 71.7615 135.029 70.4912 132.303L80.5585 127.503ZM88.4989 138.194C92.6849 141.917 97.8338 144.575 103.521 145.734L101.572 156.733C93.7766 155.196 86.7223 151.571 81.0128 146.465L88.5011 138.194H88.4989ZM104.409 145.901C106.226 146.218 108.093 146.386 110.001 146.386C111.909 146.386 113.656 146.227 115.419 145.931L117.397 156.926C114.992 157.34 112.521 157.557 110.001 157.557C107.481 157.557 104.911 157.331 102.461 156.901L104.409 145.901ZM116.307 145.768C121.951 144.649 127.073 142.059 131.254 138.414L138.462 146.932C132.812 151.824 125.897 155.289 118.285 156.763L116.307 145.768ZM136.95 131.943C137.576 131.008 138.155 130.037 138.682 129.036L148.593 134.153C147.899 135.477 147.137 136.761 146.317 138L136.95 131.943ZM139.292 127.822C141.175 123.86 142.28 119.459 142.409 114.815H153.563C153.43 121.299 151.879 127.442 149.21 132.941L139.294 127.822H139.292ZM142.409 113.003C142.395 112.505 142.37 112.012 142.334 111.52L153.432 110.395C153.5 111.258 153.545 112.127 153.563 113.003H142.409ZM142.205 110.169C141.69 105.681 140.259 101.47 138.103 97.7273L147.763 92.1529C150.691 97.2292 152.623 102.951 153.301 109.043L142.205 110.169ZM150.505 90.5703L168.44 80.2232C173.015 88.1567 176.024 97.1024 177.048 106.637L156.45 108.724C155.726 102.174 153.651 96.0269 150.505 90.5703ZM150.044 89.7915C149.447 88.802 148.817 87.8352 148.15 86.8933L165.204 75.1492C166.182 76.5417 167.107 77.9749 167.979 79.442L150.044 89.7892V89.7915ZM147.35 85.7975C143.643 80.8685 138.987 76.6934 133.655 73.5462L143.98 55.578C151.986 60.2761 158.945 66.5817 164.41 74.0466L147.348 85.7975H147.35ZM132.477 72.8738C126.033 69.3168 118.667 67.2406 110.837 67.1025L110.767 46.3629C122.38 46.4942 133.298 49.578 142.804 54.9033L132.477 72.8738ZM109.029 67.1047C101.082 67.2677 93.6184 69.4277 87.1133 73.1024L76.7205 55.1704C86.2635 49.7252 97.2529 46.5463 108.959 46.3674L109.029 67.1047ZM85.9425 73.7862C84.0371 74.9364 82.2198 76.2202 80.502 77.624L67.1189 61.8066C69.7679 59.6172 72.5865 57.627 75.5497 55.8565L85.9425 73.7862ZM79.1232 78.7968C71.5784 85.4601 66.1922 94.519 64.1579 104.776L43.786 101.078C46.6927 86.0013 54.615 72.6949 65.7423 62.9795L79.1232 78.7968ZM63.2741 114.817C63.3962 121.22 64.8066 127.313 67.259 132.844L48.5597 141.76C44.8234 133.523 42.6965 124.408 42.5699 114.817H63.2719H63.2741ZM67.6342 133.668C69.0062 136.609 70.6743 139.388 72.6 141.957L56.3667 154.818C53.4826 151.032 50.9872 146.932 48.9417 142.58L67.6319 133.666L67.6342 133.668ZM73.4318 143.033C74.8038 144.758 76.2934 146.384 77.8891 147.898L63.9884 163.254C61.5495 160.972 59.2802 158.51 57.2007 155.891L73.4318 143.033ZM78.8881 148.815C85.0293 154.315 92.6261 158.216 101.019 159.858L97.3999 180.28C85.0926 177.941 73.9585 172.24 64.9874 164.171L78.8881 148.815ZM101.909 160.025C104.538 160.487 107.243 160.729 110.003 160.729C112.763 160.729 115.374 160.494 117.959 160.048L121.63 180.459C117.851 181.12 113.965 181.467 110.001 181.467C106.036 181.467 102.094 181.116 98.2881 180.446L101.907 160.025H101.909ZM118.848 159.885C127.021 158.309 134.444 154.598 140.508 149.352L153.887 165.165C145.096 172.727 134.349 178.064 122.518 180.296L118.848 159.885ZM141.853 148.141C144.213 145.935 146.346 143.492 148.211 140.843L154.009 144.593C154.122 144.667 154.25 144.701 154.375 144.701C154.596 144.701 154.816 144.593 154.944 144.391C155.148 144.077 155.057 143.655 154.743 143.452L148.975 139.723C149.852 138.396 150.666 137.024 151.407 135.609L169.808 145.107C166.09 152.232 161.142 158.615 155.245 163.969L141.855 148.141H141.853ZM152.022 134.397C154.917 128.463 156.594 121.827 156.728 114.819H177.43C177.292 125.248 174.785 135.111 170.423 143.895L152.022 134.395V134.397ZM156.728 113.008C156.71 112.025 156.66 111.049 156.581 110.08L177.179 107.993C177.323 109.648 177.407 111.321 177.43 113.008H156.728ZM110.001 21.2785C143.885 21.2785 173.571 39.6293 189.678 66.9304L169.98 78.2941C169.08 76.7794 168.122 75.2964 167.105 73.8451L182.47 63.2647C182.78 63.0519 182.857 62.6285 182.644 62.3206C182.432 62.0104 182.009 61.9334 181.702 62.1462L166.311 72.7447C164.202 69.8625 161.859 67.1183 159.289 64.544C154.996 60.2444 150.238 56.5765 145.132 53.5833L154.418 37.4218C154.605 37.0958 154.492 36.6814 154.169 36.4935C153.844 36.3056 153.43 36.4188 153.242 36.7426L143.955 52.904C133.908 47.2731 122.568 44.2256 110.76 44.101L110.697 25.3041C110.697 24.806 110.29 24.4007 109.793 24.4007H109.791C109.291 24.4007 108.889 24.8083 108.889 25.3086L108.952 44.1033C97.0586 44.2776 85.6487 47.4158 75.5655 53.1735L66.0407 36.738C65.8531 36.4143 65.4372 36.3033 65.114 36.4912C64.7908 36.6792 64.68 37.0958 64.8676 37.4195L74.3947 53.8572C71.3411 55.6821 68.414 57.7515 65.6384 60.0519L50.942 42.6791C66.9719 29.3184 87.5676 21.2739 110.003 21.2739L110.001 21.2785ZM49.561 43.8565L64.2596 61.2315C63.0458 62.2912 61.8637 63.3938 60.7132 64.544C50.7205 74.5538 44.1386 87.0699 41.546 100.675L19.1421 96.6088C23.1021 75.7017 34.0962 57.2602 49.561 43.8565ZM17.5305 114.819H40.3119C40.4362 124.609 42.5586 134.078 46.487 142.752L25.9546 152.542C20.6633 141.036 17.6594 128.266 17.5305 114.819ZM26.3366 153.364L46.8645 143.576C48.9575 148.039 51.5365 152.284 54.5653 156.249L39.7921 167.952C39.4982 168.185 39.4485 168.613 39.6813 168.905C39.8147 169.075 40.0136 169.163 40.2125 169.163C40.3594 169.163 40.5086 169.116 40.6329 169.016L55.3993 157.317C57.0471 159.389 58.8168 161.381 60.7132 163.283C61.2828 163.854 61.8615 164.406 62.4469 164.954L49.3531 179.418C49.1022 179.696 49.1225 180.124 49.4005 180.378C49.5294 180.495 49.6944 180.554 49.8548 180.554C50.0402 180.554 50.2233 180.479 50.3566 180.332L63.4436 165.876C72.9979 174.486 84.5456 180.183 96.9998 182.524L93.0194 204.982C63.473 199.469 38.8224 179.836 26.3321 153.364H26.3366ZM93.9122 205.145L97.8903 182.689C101.85 183.38 105.896 183.733 109.999 183.733C114.101 183.733 118.095 183.384 122.03 182.703L126.067 205.147C120.848 206.067 115.478 206.549 109.999 206.549C104.52 206.549 99.138 206.067 93.91 205.145H93.9122ZM126.958 204.987L122.921 182.54C134.896 180.303 146.032 174.966 155.369 166.922L162.88 175.799C163.059 176.01 163.314 176.119 163.57 176.119C163.775 176.119 163.983 176.049 164.153 175.904C164.535 175.58 164.58 175.009 164.259 174.627L156.725 165.722C157.596 164.932 158.448 164.121 159.284 163.283C164.39 158.169 168.603 152.397 171.851 146.164L175.852 148.229C175.951 148.281 176.058 148.304 176.162 148.304C176.408 148.304 176.645 148.17 176.765 147.935C176.937 147.602 176.806 147.192 176.474 147.02L172.471 144.953C177.068 135.69 179.557 125.445 179.69 114.819H202.471C202.04 159.695 169.593 197.037 126.958 204.984V204.987Z" fill="url(#paint0_linear_1915_480)"/>
    <defs>
        <linearGradient id="paint0_linear_1915_480" x1="24.0221" y1="163.63" x2="196.126" y2="64.4339" gradientUnits="userSpaceOnUse">
            <stop offset="0.12" stop-opacity="0"/>
            <stop offset="0.44"/>
        </linearGradient>
    </defs>
</svg>

<svg xmlns="http://www.w3.org/2000/svg" width="220" height="226" fill="none" viewBox="0 0 220 226">
    <path fill="#fff" d="M220 110.189C220 49.333 170.751 0 110 0S0 49.333 0 110.189v5.622C0 176.667 49.249 226 110 226s110-49.333 110-110.189z"/>
    <path fill="url(#a)" d="M201.456 75.204c-4.999-11.84-12.155-22.472-21.269-31.603s-19.73-16.3-31.549-21.306c-12.239-5.185-25.238-7.816-38.637-7.816s-26.398 2.629-38.637 7.816c-11.82 5.008-22.434 12.177-31.55 21.306S23.544 63.364 18.546 75.204c-5.176 12.26-7.802 25.281-7.802 38.703s2.624 26.443 7.802 38.703c5 11.839 12.156 22.472 21.27 31.603 9.113 9.129 19.73 16.3 31.549 21.306 12.24 5.184 25.238 7.815 38.637 7.815s26.398-2.628 38.637-7.815c11.819-5.009 22.436-12.177 31.549-21.306 9.114-9.131 16.272-19.764 21.269-31.603 5.176-12.26 7.803-25.281 7.803-38.703s-2.624-26.443-7.803-38.703M202.471 113H179.69a71 71 0 0 0-.26-5.244l17.865-1.811a.68.68 0 0 0 .606-.745.68.68 0 0 0-.744-.607l-17.858 1.812a69.2 69.2 0 0 0-8.867-27.335l19.698-11.364c7.708 13.363 12.181 28.82 12.339 45.294zm-184.94 0c.05-5.13.517-10.161 1.37-15.06l22.403 4.063a70.4 70.4 0 0 0-.992 10.997zm26.01-10.591 20.375 3.697a47 47 0 0 0-.64 6.894H42.574c.048-3.604.378-7.141.97-10.591zm96.264 43.304-7.219-8.534a32.6 32.6 0 0 0 3.584-4.13l9.381 6.066a44 44 0 0 1-5.746 6.598m-63.894-4.653 8.743-6.926a33 33 0 0 0 2.848 3.133l-7.49 8.276a44 44 0 0 1-4.1-4.483m5.258-59.85 7.208 8.52c-5.068 4.553-8.702 10.675-10.13 17.596l-10.977-1.992c1.901-9.519 6.9-17.928 13.897-24.125zm50.015 43.951 2.475 1.277a27 27 0 0 1-4.735 6.414l-3.84-4.537a21.1 21.1 0 0 0 5.646-13.506h6.021a26.7 26.7 0 0 1-2.488 10.413l-2.459-1.27a.678.678 0 1 0-.622 1.207zm-45.524-.095 12.657-6.036a12.82 12.82 0 0 0 8.644 7.286l-2.453 13.838c-8.392-1.759-15.351-7.467-18.848-15.088m6.37-31.019 3.471 4.103a21.08 21.08 0 0 0-6.51 11.126l-5.178-.94a26.83 26.83 0 0 1 8.219-14.289zm-3.04 16.61a.667.667 0 0 0 .504-.111.56.56 0 0 0 .476-.451 19.97 19.97 0 0 1 6.261-11.083l4.867 5.754a12.74 12.74 0 0 0-3.82 8.234H83.246c.038-1.127.145-2.239.319-3.328zm31.404 12.115a.9.9 0 0 0-.952-.281 12.74 12.74 0 0 0 3.28-7.677h6.88a20 20 0 0 1-5.251 12.636l-3.955-4.676zm-20.212-8.864c0-5.423 4.406-9.835 9.819-9.835s9.819 4.412 9.819 9.835-4.406 9.836-9.819 9.836-9.819-4.413-9.819-9.836m22.54-.906a12.7 12.7 0 0 0-1.659-5.445l5.994-3.457a19.9 19.9 0 0 1 2.545 8.902zm-2.134-6.215c-2.294-3.409-6.182-5.658-10.587-5.658a12.67 12.67 0 0 0-7.522 2.466l-4.849-5.728a19.96 19.96 0 0 1 11.984-3.999c7.154 0 13.442 3.781 16.98 9.453l-6.008 3.466zm-23.308 8.027c.084 1.175.323 2.307.703 3.376l-12.685 6.049a26.7 26.7 0 0 1-2.05-9.425zm10.567 11.687a12.695 12.695 0 0 0 10.987-3.387.91.91 0 0 0 .181.831l4.05 4.789a19.96 19.96 0 0 1-9.31 4.784.403.403 0 0 0-.23.047 20 20 0 0 1-3.908.385.566.566 0 0 0 0 1.132c1.293 0 2.558-.117 3.79-.342l1.011 5.618c-1.438.24-2.912.367-4.417.367s-3.108-.138-4.604-.399zm6.444 8.058a21.05 21.05 0 0 0 9.504-4.963l3.807 4.499a26.7 26.7 0 0 1-12.298 6.1l-1.015-5.638zm16.441-21.554a21.05 21.05 0 0 0-2.696-9.469l5.171-2.984a26.66 26.66 0 0 1 3.547 12.453zm-3.157-10.248c-3.734-6.011-10.386-10.02-17.958-10.02-4.727 0-9.15 1.575-12.717 4.265l-3.49-4.123a26.6 26.6 0 0 1 16.591-5.785c9.586 0 18.012 5.074 22.741 12.684zm8.781-7.739 9.188-6.328a44 44 0 0 1 1.758 2.683l-9.665 5.577a32 32 0 0 0-1.281-1.932m-.814-1.089a32.7 32.7 0 0 0-9.027-7.956l5.562-9.68a43.9 43.9 0 0 1 12.662 11.304l-9.197 6.335zm-10.207-8.626a32.2 32.2 0 0 0-14.448-3.858l-.038-11.174a43.25 43.25 0 0 1 20.05 5.348l-5.564 9.682zm-16.256-3.856a32.2 32.2 0 0 0-14.778 4.055l-5.599-9.659a43.2 43.2 0 0 1 20.338-5.567l.039 11.173zM93.13 86.187a33 33 0 0 0-3.374 2.375l-7.209-8.52a44 44 0 0 1 4.984-3.516l5.6 9.659zm-15.128 22.481a33 33 0 0 0-.411 4.338H66.436c.043-2.151.244-4.264.59-6.329L78 108.668zm-.411 6.149c.115 4.2 1.03 8.201 2.6 11.86l-10.073 4.804a43.45 43.45 0 0 1-3.68-16.664h11.155zm2.968 12.686a32.5 32.5 0 0 0 3.272 5.556l-8.75 6.931a43.8 43.8 0 0 1-4.59-7.687zm7.94 10.691a32.3 32.3 0 0 0 15.022 7.54l-1.949 10.999c-7.795-1.537-14.85-5.162-20.56-10.268l7.49-8.271zm15.91 7.707a32.5 32.5 0 0 0 11.01.03l1.978 10.995a43.6 43.6 0 0 1-7.396.631c-2.52 0-5.09-.226-7.54-.656zm11.898-.133a32.3 32.3 0 0 0 14.947-7.354l7.208 8.518a43.44 43.44 0 0 1-20.177 9.831zm20.643-13.825a32 32 0 0 0 1.732-2.907l9.911 5.117a44 44 0 0 1-2.276 3.847zm2.342-4.121a32.3 32.3 0 0 0 3.117-13.007h11.154a43.5 43.5 0 0 1-4.353 18.126l-9.916-5.119zm3.117-14.819a33 33 0 0 0-.075-1.483l11.098-1.125q.103 1.294.131 2.608zm-.204-2.834a32.3 32.3 0 0 0-4.102-12.442l9.66-5.574a43.4 43.4 0 0 1 5.538 16.89zm8.3-19.599 17.935-10.347a67.15 67.15 0 0 1 8.608 26.414l-20.598 2.087a46.5 46.5 0 0 0-5.945-18.154m-.461-.778a47 47 0 0 0-1.894-2.899l17.054-11.744a67 67 0 0 1 2.775 4.293l-17.935 10.347zm-2.694-3.995a47.1 47.1 0 0 0-13.695-12.25l10.325-17.969a68 68 0 0 1 20.43 18.469l-17.062 11.75zm-14.873-12.923a46.35 46.35 0 0 0-21.64-5.771l-.07-20.74a66.9 66.9 0 0 1 32.037 8.54zm-23.448-5.77a46.4 46.4 0 0 0-21.916 5.998L76.721 55.17a66.93 66.93 0 0 1 32.238-8.803zm-23.086 6.682a47 47 0 0 0-5.441 3.838L67.119 61.807a68 68 0 0 1 8.43-5.95zm-6.82 5.01c-7.545 6.664-12.93 15.723-14.965 25.98l-20.372-3.698c2.907-15.077 10.829-28.383 21.956-38.098zm-15.849 36.021a46.6 46.6 0 0 0 3.985 18.027l-18.7 8.916a67.2 67.2 0 0 1-5.99-26.943h20.705m4.36 18.851a47 47 0 0 0 4.966 8.289l-16.233 12.861a67.8 67.8 0 0 1-7.425-12.238l18.69-8.914zm5.798 9.365a47 47 0 0 0 4.457 4.865l-13.9 15.356a68 68 0 0 1-6.788-7.363zm5.456 5.782c6.141 5.5 13.738 9.401 22.131 11.043l-3.62 20.422c-12.306-2.339-23.44-8.04-32.412-16.109zm23.021 11.21a47 47 0 0 0 8.094.704c2.76 0 5.371-.235 7.956-.681l3.671 20.411a67.5 67.5 0 0 1-11.629 1.008 68 68 0 0 1-11.713-1.021l3.619-20.421zm16.939-.14a46.6 46.6 0 0 0 21.66-10.533l13.379 15.813c-8.791 7.562-19.538 12.899-31.369 15.131zm23.005-11.744a47 47 0 0 0 6.358-7.298l5.798 3.75a.672.672 0 0 0 .935-.202.68.68 0 0 0-.201-.939l-5.768-3.729a47 47 0 0 0 2.432-4.114l18.401 9.498a68 68 0 0 1-14.563 18.862l-13.39-15.828zm10.169-13.744a46.6 46.6 0 0 0 4.706-19.578h20.702a67.2 67.2 0 0 1-7.007 29.076l-18.401-9.5zm4.706-21.389a47 47 0 0 0-.147-2.928l20.598-2.087q.216 2.483.251 5.015zm-46.727-91.73c33.884 0 63.57 18.351 79.677 45.652L169.98 78.294a71 71 0 0 0-2.875-4.449l15.365-10.58a.678.678 0 1 0-.768-1.119l-15.391 10.599a71 71 0 0 0-7.022-8.201 70 70 0 0 0-14.157-10.96l9.286-16.162a.68.68 0 1 0-1.176-.68l-9.287 16.162c-10.047-5.63-21.387-8.678-33.195-8.803l-.063-18.797a.906.906 0 0 0-.904-.903h-.002c-.5 0-.902.407-.902.908l.063 18.794c-11.893.175-23.303 3.313-33.386 9.07L66.04 36.739a.678.678 0 1 0-1.173.681l9.527 16.438a70 70 0 0 0-8.757 6.195L50.942 42.679c16.03-13.36 36.626-21.405 59.061-21.405zm-60.44 22.579L64.26 61.23a72 72 0 0 0-3.547 3.313c-9.992 10.01-16.574 22.526-19.167 36.131l-22.404-4.066c3.96-20.907 14.954-39.349 30.419-52.752m-32.03 70.962h22.78c.125 9.79 2.248 19.259 6.176 27.933l-20.532 9.79c-5.292-11.506-8.296-24.276-8.424-37.723m8.806 38.545 20.528-9.788a69.5 69.5 0 0 0 7.7 12.673l-14.773 11.703a.678.678 0 0 0 .84 1.064L55.4 157.317a71 71 0 0 0 5.314 5.966 70 70 0 0 0 1.734 1.671l-13.094 14.464a.68.68 0 0 0 .502 1.136.67.67 0 0 0 .502-.222l13.087-14.456c9.554 8.61 21.102 14.307 33.556 16.648l-3.98 22.458c-29.547-5.513-54.198-25.146-66.688-51.618zm67.575 51.781 3.978-22.456A70.4 70.4 0 0 0 110 183.733c4.102 0 8.096-.349 12.031-1.03l4.037 22.444a92.5 92.5 0 0 1-16.068 1.402 92.6 92.6 0 0 1-16.089-1.404zm33.046-.158-4.037-22.447c11.975-2.237 23.111-7.574 32.448-15.618l7.511 8.877a.903.903 0 0 0 1.273.105.91.91 0 0 0 .106-1.277l-7.534-8.905a71 71 0 0 0 2.559-2.439 70 70 0 0 0 12.567-17.119l4.001 2.065a.676.676 0 0 0 .913-.294.68.68 0 0 0-.291-.915l-4.003-2.067c4.597-9.263 7.086-19.508 7.219-30.134h22.781c-.431 44.876-32.878 82.218-75.513 90.165z"/>
    <defs>
        <linearGradient id="a" x1="24.022" x2="196.126" y1="163.63" y2="64.434" gradientUnits="userSpaceOnUse">
            <stop offset=".12" stop-opacity="0"/>
            <stop offset=".44"/>
        </linearGradient>
    </defs>
</svg>
